public/illustrations/reuse.svg

<svg width="51" height="39" viewBox="0 0 51 39" fill="none" xmlns="http://www.w3.org/2000/svg">
<path d="M10.5508 36.4816C10.4338 36.1654 10.3263 35.9156 10.2346 35.65C7.98113 28.2107 5.72657 20.7693 3.47095 13.3258C3.37925 13.0285 3.23064 12.7503 3.1168 12.4594C3.04091 12.2601 2.98084 12.0546 2.88281 11.7605L41.8775 2.44189C43.9929 10.0783 46.0577 17.7052 48.1827 25.4081C47.9803 25.4903 47.7874 25.5851 47.5851 25.6452L31.1834 30.4421L11.003 36.3805C10.8955 36.4247 10.7817 36.45 10.5508 36.4816ZM18.5477 18.695C18.7343 18.8341 18.8639 18.91 18.9525 19.0112L22.0418 21.7369C22.8798 22.4768 23.7209 23.2104 24.5715 23.9503C24.9794 24.3076 25.4379 24.5828 25.9754 24.3361C26.5774 24.1235 27.0708 23.6813 27.3478 23.1061C27.5154 22.7108 27.6987 22.325 27.8822 21.9361C28.113 21.4555 28.3501 20.9875 28.5968 20.4752C28.8687 20.6175 29.0711 20.7187 29.2703 20.8294C29.7446 21.095 30.2189 21.3827 30.6901 21.6262C31.5818 22.0784 32.4735 21.9962 32.951 20.8894C33.0522 20.6523 33.1628 20.4215 33.2672 20.1875C34.2896 17.9234 35.3109 15.6594 36.3312 13.3953C36.445 13.1424 36.5937 12.902 36.7707 12.5732C36.9004 13.1107 36.97 13.5218 37.1059 13.9392C37.1806 14.1887 37.339 14.4048 37.5544 14.5511C37.7698 14.6974 38.0291 14.7649 38.2885 14.7424C38.5551 14.6904 38.7953 14.5476 38.9683 14.3383C39.1413 14.1289 39.2363 13.8661 39.2372 13.5945C39.2483 13.3651 39.2356 13.1352 39.1992 12.9084C38.9779 11.6435 38.7755 10.3787 38.5067 9.11387C38.3988 8.70197 38.2131 8.31451 37.9597 7.97236C37.8398 7.79077 37.6648 7.6525 37.4604 7.57792C37.256 7.50333 37.0331 7.4964 36.8245 7.55813C36.574 7.61183 36.3285 7.68695 36.0909 7.78265C35.0284 8.27277 33.9723 8.7787 32.9288 9.2783C32.771 9.34636 32.6187 9.42672 32.4735 9.51862C32.2604 9.66629 32.103 9.88102 32.0262 10.1286C31.9494 10.3762 31.9577 10.6423 32.0498 10.8846C32.158 11.1176 32.3419 11.307 32.5717 11.4219C32.8014 11.5367 33.0633 11.5703 33.3146 11.5171C33.6377 11.4086 33.9544 11.2819 34.2632 11.1376C34.4378 11.0896 34.6152 11.0526 34.7944 11.0269L31.1644 19.2705C30.8893 19.1155 30.6932 19.0048 30.494 18.8973C29.9691 18.6096 29.46 18.2649 28.913 18.0467C27.9644 17.6452 27.3319 17.8918 26.8513 18.7898C26.5351 19.4001 26.2537 20.0262 25.9565 20.6428L25.46 21.6705L22.0513 18.6665C21.1501 17.8728 20.2521 17.0855 19.3414 16.2886C18.6394 15.6847 18.1967 15.7005 17.4157 16.2032C16.9956 16.5041 16.6963 16.9446 16.5714 17.446C15.8157 19.6594 15.0789 21.8729 14.2979 24.0863C13.9817 25.0096 13.5485 25.8982 13.169 26.8025H13.0204L11.7967 22.2207C12.1129 22.0879 12.4006 22.0057 12.6504 21.8729C12.9 21.7573 13.0993 21.5553 13.2115 21.3042C13.3237 21.0531 13.3412 20.7698 13.2607 20.5068C13.1788 20.2599 13.0107 20.0507 12.7871 19.9177C12.5635 19.7847 12.2994 19.7368 12.0433 19.7827C11.7271 19.8048 11.4457 19.8807 11.0947 19.944L10.1239 16.5701C10.5445 16.3297 10.9081 16.1621 11.2243 15.9376C11.3952 15.8028 11.5181 15.6165 11.5751 15.4065C11.632 15.1964 11.6199 14.9735 11.5405 14.7708C11.4741 14.5651 11.3425 14.3866 11.1657 14.2623C10.9889 14.1379 10.7764 14.0745 10.5603 14.0815C10.303 14.0796 10.0467 14.1126 9.79827 14.1795C9.3872 14.2902 8.98558 14.4356 8.57767 14.5685C7.8504 14.8088 7.58478 15.2357 7.7081 16.0009C7.75319 16.3124 7.81764 16.6207 7.90102 16.9242C8.41644 18.7645 8.97294 20.5954 9.4599 22.4452C10.1556 25.0919 10.8481 27.7417 11.452 30.4105C11.6581 31.4433 11.9762 32.4506 12.4006 33.4144C12.7674 34.1892 13.207 34.3631 13.9817 34.069C14.2979 33.9551 14.6141 33.8223 14.9493 33.7243L41.5518 25.9456C41.9091 25.8413 42.2664 25.7432 42.6111 25.6041C43.1676 25.3828 43.4396 25.0255 43.3795 24.5005C43.2901 23.7301 43.0073 22.9947 42.5574 22.363C42.4105 22.1841 42.212 22.055 41.989 21.9933C41.766 21.9316 41.5293 21.9403 41.3115 22.0183C41.0937 22.0959 40.9075 22.2428 40.7812 22.4364C40.655 22.63 40.5958 22.8597 40.6127 23.0903C40.6127 23.3306 40.6791 23.5709 40.717 23.8239L32.8308 26.1353C32.6583 25.7181 32.4631 25.3106 32.2458 24.9148C32.0982 24.6669 31.8641 24.4823 31.5886 24.3965C31.3131 24.3107 31.0156 24.3297 30.7533 24.4499C30.5138 24.5811 30.3303 24.795 30.2372 25.0517C30.1441 25.3084 30.1477 25.5902 30.2474 25.8444C30.3359 26.1448 30.4593 26.4326 30.5826 26.7741C28.2521 27.4887 25.9185 28.1812 23.5786 28.8231C23.4672 28.4417 23.3287 28.0686 23.1643 27.7069C22.7817 27.0049 22.105 26.7583 21.5169 27.0745C21.0078 27.3338 20.8434 27.944 21.0964 28.6555C21.1881 28.918 21.3019 29.1709 21.4126 29.4808C18.9556 30.2049 16.5809 30.9385 14.0702 31.6152L18.5477 18.695Z" fill="#EAECF1"/>
<path d="M11.3882 21.2274C16.6879 22.9539 21.9085 24.8975 27.05 27.0583C27.4484 27.2259 27.9133 26.8749 28.0208 26.5081C29.1799 22.6008 29.8491 18.5646 30.0129 14.4922L28.8239 15.1752L39.3852 20.7942C40.2833 21.2717 41.0833 19.9089 40.1821 19.4282L29.6113 13.8061C29.4907 13.7389 29.3548 13.7042 29.2168 13.7051C29.0788 13.706 28.9434 13.7426 28.8237 13.8114C28.704 13.8801 28.6042 13.9787 28.5338 14.0974C28.4635 14.2162 28.4251 14.3511 28.4223 14.4891C28.2618 18.4206 27.6117 22.3168 26.4871 26.0875L27.4611 25.5342C22.3238 23.3734 17.1032 21.4298 11.7993 19.7033C10.8286 19.3871 10.4144 20.9144 11.3788 21.2274H11.3882Z" fill="white"/>
<path d="M42.5487 0.000545849C42.8253 -0.00758182 43.0969 0.0752458 43.322 0.236312C43.547 0.397378 43.713 0.627795 43.7945 0.892253C43.9516 1.3198 44.0846 1.75579 44.1929 2.19819C45.7677 7.94052 47.3392 13.6818 48.9076 19.422C49.4388 21.3741 49.9711 23.3251 50.5045 25.275C50.5487 25.4394 50.574 25.6102 50.6025 25.7778C50.7542 26.5936 50.4981 27.09 49.695 27.3588C48.6704 27.7066 47.6301 28.0165 46.5898 28.3074C41.9669 29.665 37.3429 31.0173 32.7178 32.3644L10.9722 38.7423C10.7256 38.815 10.4789 38.8941 10.2291 38.9447C10.0699 38.9934 9.90259 39.0102 9.73684 38.9941C9.57109 38.978 9.41016 38.9293 9.26326 38.8509C9.11637 38.7725 8.98638 38.6658 8.88082 38.537C8.77525 38.4082 8.69618 38.2598 8.6481 38.1004C8.45838 37.6261 8.31291 37.1296 8.16429 36.6395C6.35559 30.6421 4.54899 24.6415 2.7445 18.6378C2.28599 17.1105 1.84648 15.5769 1.37533 14.0528C1.19509 13.4615 1.13499 12.8512 0.799812 12.282C0.559494 11.8741 0.559504 11.286 0.572152 10.7801C0.591124 10.1476 1.04961 9.83145 1.62511 9.69864C2.45673 9.50259 3.29153 9.31602 4.12315 9.11681L19.4244 5.46145L36.468 1.3887L41.7898 0.123871C42.0427 0.0859265 42.2989 0.0448149 42.5487 0.000545849ZM10.5517 36.4814C10.7825 36.4371 10.8963 36.4245 11.0038 36.3929L31.1842 30.4418L47.5953 25.6323C47.7977 25.5722 47.9906 25.4774 48.193 25.3952C46.0681 17.6923 44.0032 10.0654 41.8878 2.42902L2.8931 11.7477C2.99113 12.0417 3.0512 12.2473 3.12709 12.4465C3.24093 12.7374 3.38954 13.0157 3.48124 13.3129C5.73897 20.7522 7.99353 28.1936 10.2449 35.6371C10.3271 35.9154 10.4347 36.1715 10.5517 36.4814Z" fill="#3558A2"/>
<path d="M18.5518 18.6948L14.0933 31.6087C16.604 30.932 18.9787 30.1984 21.4356 29.4743C21.3123 29.1581 21.1985 28.9114 21.1194 28.649C20.8664 27.9343 21.0309 27.3241 21.54 27.0679C22.1281 26.7517 22.8048 27.0142 23.1874 27.7004C23.3518 28.0621 23.4902 28.4351 23.6016 28.8166C25.9416 28.1841 28.2752 27.4822 30.6056 26.7675C30.4823 26.426 30.359 26.1351 30.2705 25.8379C30.1708 25.5837 30.1671 25.3019 30.2603 25.0452C30.3534 24.7885 30.5369 24.5746 30.7764 24.4434C31.0387 24.3232 31.3362 24.3042 31.6116 24.39C31.8871 24.4758 32.1212 24.6604 32.2689 24.9082C32.4861 25.3041 32.6814 25.7115 32.8538 26.1288L40.7401 23.8173C40.7021 23.5644 40.6484 23.324 40.6357 23.0837C40.6188 22.8532 40.6781 22.6235 40.8043 22.4299C40.9305 22.2362 41.1168 22.0894 41.3345 22.0118C41.5524 21.9338 41.789 21.9251 42.0121 21.9868C42.2351 22.0485 42.4336 22.1776 42.5804 22.3565C43.0303 22.9882 43.3132 23.7236 43.4025 24.494C43.4626 25.0189 43.1907 25.3762 42.6342 25.5976C42.2895 25.7367 41.9322 25.8347 41.5749 25.9391L14.9723 33.7178C14.6561 33.8158 14.3399 33.9486 14.0047 34.0624C13.2142 34.347 12.7747 34.1826 12.4237 33.4079C11.9992 32.444 11.6812 31.4367 11.4751 30.4039C10.8711 27.7351 10.1786 25.0853 9.48299 22.4387C8.99603 20.5889 8.43949 18.758 7.92407 16.9177C7.84069 16.6142 7.77628 16.3058 7.73119 15.9944C7.60787 15.2292 7.87348 14.8023 8.60076 14.562C9.00867 14.4292 9.41025 14.2837 9.82132 14.173C10.0697 14.106 10.3261 14.0731 10.5834 14.075C10.7995 14.068 11.0119 14.1314 11.1887 14.2558C11.3656 14.3801 11.4972 14.5586 11.5636 14.7643C11.643 14.967 11.6551 15.1898 11.5982 15.3999C11.5412 15.61 11.4183 15.7963 11.2474 15.9311C10.9312 16.1588 10.5676 16.3264 10.147 16.5635L11.1178 19.9375C11.4751 19.8742 11.7723 19.7983 12.0664 19.7762C12.3225 19.7303 12.5865 19.7782 12.8102 19.9112C13.0338 20.0442 13.2019 20.2534 13.2838 20.5003C13.3642 20.7633 13.3468 21.0466 13.2346 21.2977C13.1224 21.5488 12.9231 21.7508 12.6735 21.8663C12.4237 21.9991 12.1486 22.0813 11.8198 22.2142L13.0277 26.7833H13.1763C13.5557 25.879 13.9795 24.9905 14.3052 24.0671C15.0862 21.8537 15.8229 19.6402 16.5787 17.4268C16.7036 16.9255 17.0029 16.4849 17.423 16.1841C18.204 15.6813 18.6467 15.6655 19.3486 16.2695C20.2593 17.0537 21.1573 17.8505 22.0585 18.6474L25.4672 21.6513L25.9637 20.6236C26.261 19.9912 26.5424 19.381 26.8586 18.7707C27.3234 17.8727 27.9748 17.626 28.9202 18.0276C29.4704 18.2616 29.9795 18.5904 30.5013 18.8782C30.7005 18.9857 30.8965 19.0964 31.1716 19.2513L34.8207 10.9983C34.6415 11.024 34.464 11.061 34.2894 11.109C33.9806 11.2532 33.6639 11.3799 33.3408 11.4884C33.0895 11.5417 32.8276 11.5081 32.5979 11.3932C32.3682 11.2784 32.1842 11.089 32.076 10.856C31.9839 10.6137 31.9756 10.3475 32.0524 10.1C32.1292 9.85239 32.2867 9.63766 32.4997 9.49C32.645 9.39809 32.7972 9.31774 32.9551 9.24968C34.0144 8.75007 35.0705 8.24414 36.1171 7.75402C36.3548 7.65832 36.6002 7.5832 36.8507 7.52951C37.0593 7.46778 37.2823 7.47471 37.4867 7.54929C37.6911 7.62387 37.8661 7.76215 37.9859 7.94374C38.2394 8.28588 38.4251 8.67336 38.533 9.08526C38.8017 10.3501 39.0041 11.6149 39.2254 12.8797C39.2618 13.1065 39.2745 13.3365 39.2634 13.5659C39.2625 13.8375 39.1675 14.1003 38.9945 14.3096C38.8215 14.5189 38.5813 14.6618 38.3148 14.7137C38.0553 14.7363 37.7961 14.6687 37.5806 14.5224C37.3652 14.3761 37.2068 14.16 37.1321 13.9106C36.9962 13.5058 36.9266 13.0821 36.797 12.5446C36.6199 12.8608 36.4808 13.1137 36.3575 13.3667C35.3329 15.6286 34.3116 17.8927 33.2934 20.1588C33.1859 20.3928 33.0752 20.6236 32.9772 20.8608C32.4997 21.9675 31.608 22.0497 30.7163 21.5976C30.2325 21.3541 29.7677 21.0663 29.2965 20.8007C29.0973 20.69 28.8949 20.5889 28.623 20.4466C28.3764 20.9462 28.1392 21.4268 27.9084 21.9074C27.725 22.2964 27.5416 22.6822 27.374 23.0774C27.097 23.6527 26.6037 24.0949 26.0017 24.3074C25.4641 24.5414 25.0056 24.279 24.5977 23.9217C23.7597 23.1849 22.9186 22.4513 22.068 21.7082L18.9787 18.9825C18.8553 18.9098 18.7384 18.8339 18.5518 18.6948Z" fill="#3558A2"/>
</svg>

<svg xmlns="http://www.w3.org/2000/svg" width="51" height="39" fill="none" viewBox="0 0 51 39"><path fill="#eaecf1" d="M10.55 36.482c-.116-.317-.224-.566-.315-.832L3.47 13.326c-.092-.298-.24-.576-.354-.867-.076-.199-.136-.404-.234-.698l38.995-9.32c2.115 7.637 4.18 15.264 6.305 22.967-.203.082-.396.177-.598.237l-16.402 4.797-20.18 5.938c-.107.045-.221.07-.452.102m7.998-17.787c.186.14.316.215.405.316l3.089 2.726c.838.74 1.679 1.473 2.53 2.213.407.358.866.633 1.403.386a2.42 2.42 0 0 0 1.373-1.23c.167-.395.35-.781.534-1.17.231-.48.468-.948.715-1.46.272.142.474.243.673.353.475.266.949.554 1.42.797.892.452 1.784.37 2.261-.737.101-.237.212-.467.316-.701q1.534-3.397 3.064-6.793c.114-.253.263-.493.44-.822.13.538.199.949.335 1.366a1.13 1.13 0 0 0 1.182.803 1.17 1.17 0 0 0 .95-1.148q.016-.344-.039-.686c-.221-1.264-.423-2.53-.692-3.794a3.3 3.3 0 0 0-.547-1.142 1.015 1.015 0 0 0-1.136-.414q-.375.081-.733.225c-1.063.49-2.119.996-3.162 1.495q-.237.103-.456.24a1.16 1.16 0 0 0-.423 1.367 1.135 1.135 0 0 0 1.265.632q.485-.162.948-.38.263-.07.531-.11l-3.63 8.244c-.275-.155-.47-.266-.67-.374-.525-.287-1.034-.632-1.581-.85-.949-.402-1.581-.155-2.062.743-.316.61-.597 1.236-.895 1.853l-.496 1.027-3.409-3.004c-.9-.793-1.799-1.58-2.71-2.377-.702-.604-1.144-.589-1.925-.086-.42.301-.72.742-.845 1.243-.755 2.213-1.492 4.427-2.273 6.64-.316.924-.75 1.812-1.129 2.717h-.149l-1.223-4.582c.316-.133.604-.215.853-.348a1.14 1.14 0 0 0 .61-1.366 1.08 1.08 0 0 0-1.217-.724c-.316.022-.597.098-.948.161l-.971-3.374c.42-.24.784-.408 1.1-.632a1.015 1.015 0 0 0 .316-1.167.995.995 0 0 0-.98-.69 2.9 2.9 0 0 0-.762.099c-.41.11-.812.256-1.22.389-.728.24-.993.667-.87 1.432q.068.468.193.923c.515 1.84 1.072 3.671 1.559 5.521.696 2.647 1.388 5.297 1.992 7.965a14.5 14.5 0 0 0 .949 3.004c.366.775.806.95 1.58.655.317-.114.633-.247.968-.345l26.603-7.778c.357-.105.714-.203 1.06-.342.556-.221.828-.578.767-1.104a4.6 4.6 0 0 0-.822-2.137 1.12 1.12 0 0 0-1.245-.345 1.06 1.06 0 0 0-.7 1.072c0 .24.067.48.105.734l-7.886 2.311a12 12 0 0 0-.585-1.22 1.17 1.17 0 0 0-1.493-.465 1.12 1.12 0 0 0-.506 1.394c.089.3.212.589.336.93a245 245 0 0 1-7.004 2.05 8 8 0 0 0-.415-1.117c-.382-.702-1.059-.949-1.647-.633-.51.26-.674.87-.42 1.581.091.263.205.516.316.826-2.457.724-4.832 1.457-7.343 2.134z"/><path fill="#fff" d="M11.388 21.227q7.95 2.59 15.662 5.831c.398.168.863-.183.97-.55a49.2 49.2 0 0 0 1.993-12.016l-1.19.683 10.562 5.62c.898.477 1.698-.886.797-1.367l-10.57-5.622a.8.8 0 0 0-1.19.683 47.3 47.3 0 0 1-1.935 11.598l.974-.553a200 200 0 0 0-15.662-5.83c-.97-.317-1.385 1.21-.42 1.523z"/><path fill="#3558a2" d="M42.549 0a1.265 1.265 0 0 1 1.245.892q.236.642.399 1.306a18946 18946 0 0 1 6.312 23.077c.044.164.069.335.097.503.152.816-.104 1.312-.907 1.58a60 60 0 0 1-3.105.95q-6.934 2.036-13.872 4.056l-21.746 6.378c-.246.073-.493.152-.743.203a1.265 1.265 0 0 1-1.58-.845c-.19-.474-.336-.97-.485-1.46q-2.712-8.997-5.42-18.002c-.458-1.528-.898-3.061-1.369-4.585-.18-.592-.24-1.202-.575-1.771-.24-.408-.24-.996-.228-1.502.02-.632.478-.949 1.053-1.081.832-.196 1.667-.383 2.498-.582L19.424 5.46 36.468 1.39 41.79.124c.253-.038.509-.08.759-.123M10.552 36.482c.23-.044.344-.056.452-.088l20.18-5.951 16.411-4.81c.203-.06.396-.155.598-.237-2.125-7.703-4.19-15.33-6.305-22.966L2.893 11.748c.098.294.158.5.234.699.114.29.263.569.354.866q3.387 11.159 6.764 22.324c.082.278.19.535.307.844"/><path fill="#3558a2" d="m18.552 18.695-4.459 12.914c2.511-.677 4.886-1.41 7.343-2.135-.124-.316-.238-.563-.317-.825-.253-.715-.088-1.325.421-1.581.588-.316 1.265-.054 1.647.632q.247.543.415 1.117c2.34-.633 4.673-1.335 7.004-2.05-.124-.341-.247-.632-.336-.93a1.12 1.12 0 0 1 .506-1.394 1.17 1.17 0 0 1 1.493.465q.325.594.585 1.22l7.886-2.31c-.038-.254-.092-.494-.104-.734a1.056 1.056 0 0 1 .698-1.072 1.12 1.12 0 0 1 1.246.345c.45.631.733 1.367.823 2.137.06.525-.212.882-.769 1.104-.345.139-.702.237-1.06.341l-26.602 7.779c-.316.098-.632.23-.967.344-.79.285-1.23.12-1.581-.654a14.5 14.5 0 0 1-.949-3.004c-.604-2.669-1.296-5.319-1.992-7.965-.487-1.85-1.044-3.681-1.559-5.521a8 8 0 0 1-.193-.924c-.123-.765.142-1.192.87-1.432.408-.133.81-.278 1.22-.389q.375-.1.762-.098a.996.996 0 0 1 .98.69 1.015 1.015 0 0 1-.316 1.166c-.316.228-.68.395-1.1.633l.97 3.374c.358-.064.655-.14.95-.162a1.08 1.08 0 0 1 1.217.724 1.14 1.14 0 0 1-.61 1.366c-.25.133-.525.215-.854.348l1.208 4.57h.148c.38-.905.803-1.793 1.13-2.717.78-2.213 1.517-4.427 2.273-6.64.125-.502.424-.942.844-1.243.781-.503 1.224-.519 1.926.085.91.785 1.808 1.582 2.71 2.378l3.408 3.004.497-1.027c.297-.633.578-1.243.895-1.853.464-.898 1.116-1.145 2.061-.743.55.234 1.06.562 1.581.85.2.108.395.218.67.373l3.65-8.253q-.27.039-.532.111-.463.216-.948.38a1.134 1.134 0 0 1-1.265-.633A1.16 1.16 0 0 1 32.5 9.49q.218-.138.455-.24c1.06-.5 2.116-1.006 3.162-1.496q.357-.144.734-.224a1.015 1.015 0 0 1 1.135.414c.253.342.44.73.547 1.141.269 1.265.471 2.53.692 3.795q.056.34.038.686a1.17 1.17 0 0 1-.948 1.148 1.13 1.13 0 0 1-1.183-.803c-.136-.405-.205-.829-.335-1.366-.177.316-.316.569-.44.822a2448 2448 0 0 0-3.064 6.792c-.107.234-.218.465-.316.702-.477 1.107-1.369 1.189-2.26.737-.484-.244-.95-.532-1.42-.797-.2-.111-.402-.212-.674-.354-.247.5-.484.98-.715 1.46-.183.39-.366.775-.534 1.17a2.42 2.42 0 0 1-1.372 1.23c-.538.234-.996-.028-1.404-.385-.838-.737-1.68-1.47-2.53-2.214l-3.09-2.725a4 4 0 0 1-.426-.288"/></svg>
